app/assets/images/heroicons/micro/viewfinder-circle.svg

<svg width="16" height="16" viewBox="0 0 16 16" fill="none" xmlns="http://www.w3.org/2000/svg">
<path d="M3.75 2C2.7835 2 2 2.7835 2 3.75V5.25C2 5.66421 2.33579 6 2.75 6C3.16421 6 3.5 5.66421 3.5 5.25V3.75C3.5 3.61193 3.61193 3.5 3.75 3.5H5.25C5.66421 3.5 6 3.16421 6 2.75C6 2.33579 5.66421 2 5.25 2H3.75Z" fill="black"/>
<path d="M10.75 2C10.3358 2 10 2.33579 10 2.75C10 3.16421 10.3358 3.5 10.75 3.5H12.25C12.3881 3.5 12.5 3.61193 12.5 3.75V5.25C12.5 5.66421 12.8358 6 13.25 6C13.6642 6 14 5.66421 14 5.25V3.75C14 2.7835 13.2165 2 12.25 2H10.75Z" fill="black"/>
<path d="M3.5 10.75C3.5 10.3358 3.16421 10 2.75 10C2.33579 10 2 10.3358 2 10.75V12.25C2 13.2165 2.7835 14 3.75 14H5.25C5.66421 14 6 13.6642 6 13.25C6 12.8358 5.66421 12.5 5.25 12.5H3.75C3.61193 12.5 3.5 12.3881 3.5 12.25V10.75Z" fill="black"/>
<path d="M14 10.75C14 10.3358 13.6642 10 13.25 10C12.8358 10 12.5 10.3358 12.5 10.75V12.25C12.5 12.3881 12.3881 12.5 12.25 12.5H10.75C10.3358 12.5 10 12.8358 10 13.25C10 13.6642 10.3358 14 10.75 14H12.25C13.2165 14 14 13.2165 14 12.25V10.75Z" fill="black"/>
<path d="M8 10C9.10457 10 10 9.10457 10 8C10 6.89543 9.10457 6 8 6C6.89543 6 6 6.89543 6 8C6 9.10457 6.89543 10 8 10Z" fill="black"/>
</svg>

<svg xmlns="http://www.w3.org/2000/svg" viewBox="0 0 16 16" fill="currentColor" aria-hidden="true" data-slot="icon">
  <path d="M3.75 2A1.75 1.75 0 0 0 2 3.75v1.5a.75.75 0 0 0 1.5 0v-1.5a.25.25 0 0 1 .25-.25h1.5a.75.75 0 0 0 0-1.5h-1.5ZM10.75 2a.75.75 0 0 0 0 1.5h1.5a.25.25 0 0 1 .25.25v1.5a.75.75 0 0 0 1.5 0v-1.5A1.75 1.75 0 0 0 12.25 2h-1.5ZM3.5 10.75a.75.75 0 0 0-1.5 0v1.5c0 .966.784 1.75 1.75 1.75h1.5a.75.75 0 0 0 0-1.5h-1.5a.25.25 0 0 1-.25-.25v-1.5ZM14 10.75a.75.75 0 0 0-1.5 0v1.5a.25.25 0 0 1-.25.25h-1.5a.75.75 0 0 0 0 1.5h1.5A1.75 1.75 0 0 0 14 12.25v-1.5ZM8 10a2 2 0 1 0 0-4 2 2 0 0 0 0 4Z"/>
</svg>
